X: 7977
T:Unknown
D:Alasdair Fraser's "Skyedance", I think
O:Scotland
R:Reel
M:4/4
K:CMix
G2GA B2Bf| ecgc acgc| G2GA B2Ba| gefd c2Bc|\
G2GA B2Bf| ecgc acgc|
G3A B2Ba| gefd c4 || \
(3efg gc Bdfd| ecgc acgc| (3efg gc Bdfa|
gefd c4| (3efg gc Bdfd| ecgc acgc| efga bagf| eBfd c4 |]
